public/assets/techs/javascript.svg

<svg width="20" height="20" viewBox="0 0 20 20" fill="none" xmlns="http://www.w3.org/2000/svg">
<path d="M11.7338 12.3125C11.9276 12.7056 12.2285 13.0359 12.6018 13.2657C12.975 13.4954 13.4055 13.6152 13.8438 13.6113C14.73 13.6113 15.2963 13.1681 15.2963 12.5563C15.2963 11.8231 14.7144 11.5631 13.7394 11.1363L13.2044 10.9069C11.6613 10.2494 10.6356 9.42563 10.6356 7.68438C10.6356 6.08001 11.8581 4.85938 13.7681 4.85938C14.388 4.8144 15.0074 4.95315 15.5489 5.2583C16.0904 5.56344 16.5299 6.02143 16.8125 6.57501L15.1469 7.64438C15.0378 7.37007 14.8479 7.13543 14.6023 6.97166C14.3567 6.80789 14.067 6.72273 13.7719 6.72751C13.6432 6.71456 13.5133 6.72857 13.3903 6.76863C13.2674 6.8087 13.1542 6.87395 13.0578 6.96021C12.9615 7.04648 12.8842 7.15187 12.8309 7.26967C12.7776 7.38747 12.7494 7.51508 12.7481 7.64438C12.7481 8.28626 13.1456 8.54563 14.0606 8.94313L14.5956 9.17188C16.4131 9.95126 17.4388 10.7456 17.4388 12.5319C17.4388 14.4575 15.9263 15.5125 13.8944 15.5125C13.1029 15.5628 12.3138 15.3831 11.6222 14.995C10.9307 14.6068 10.3662 14.0268 9.99687 13.325L11.7338 12.3125ZM4.17875 12.5C4.515 13.0963 4.82062 13.6 5.55375 13.6C6.25625 13.6 6.7 13.325 6.7 12.2563V4.98438H8.83875V12.2863C8.83875 14.5006 7.54 15.5088 5.645 15.5088C4.97562 15.545 4.31095 15.3777 3.73844 15.029C3.16592 14.6803 2.71239 14.1664 2.4375 13.555L4.17875 12.5Z" fill="#EEEEEE"/>
</svg>

<svg xmlns="http://www.w3.org/2000/svg" width="20" height="20" fill="none" xmlns:v="https://vecta.io/nano"><path d="M11.734 12.313a2.33 2.33 0 0 0 2.11 1.299c.886 0 1.453-.443 1.453-1.055 0-.733-.582-.993-1.557-1.42l-.535-.229c-1.543-.658-2.569-1.481-2.569-3.223 0-1.604 1.223-2.825 3.133-2.825a3.16 3.16 0 0 1 3.044 1.716l-1.666 1.069c-.109-.274-.299-.509-.545-.673s-.535-.249-.83-.244a.93.93 0 0 0-.714.233.93.93 0 0 0-.31.684c0 .642.397.901 1.313 1.299l.535.229c1.818.779 2.843 1.574 2.843 3.36 0 1.926-1.513 2.981-3.544 2.981a4.11 4.11 0 0 1-3.898-2.187l1.737-1.012zm-7.555.188c.336.596.642 1.1 1.375 1.1.702 0 1.146-.275 1.146-1.344V4.984h2.139v7.302c0 2.214-1.299 3.223-3.194 3.223a3.32 3.32 0 0 1-3.207-1.954L4.179 12.5z" fill="#f2c129"/></svg>
